X: 298
T: Johnny the jumper
C: anon.
O: Ireland
B: Francis O'Neill: "The Dance Music of Ireland" (1907) no. 297
R: Double jig
Z: Transcribed by Frank Nordberg - http://www.musicaviva.com
F: http://www.musicaviva.com/abc/tunes/ireland/oneill-1001/oneill-1001-029
7.abc
M: 6/8
L: 1/8
K: Ador
(g/f/)|:eAA cBA|eAA fga|eAA c2e|dBG Bcd|eAA cBA|eAA B2A|GBG gfg|dBG Bcd:|


